src/lib/packages/icons/src/assets/filled/receipt-text-alt.svg

<svg width="24" height="24" viewBox="0 0 24 24" fill="none" xmlns="http://www.w3.org/2000/svg">
<path d="M18.4 4.579L17.041 5.59798C16.444 6.04598 15.608 5.986 15.08 5.459L13.061 3.43999C12.475 2.85399 11.5249 2.85399 10.9399 3.43999L8.92102 5.459C8.39302 5.987 7.55696 6.04598 6.95996 5.59798L5.60095 4.579C4.94195 4.085 4.00098 4.55498 4.00098 5.37898V18.622C4.00098 19.446 4.94195 19.916 5.60095 19.422L6.95996 18.403C7.55696 17.955 8.39302 18.015 8.92102 18.542L10.9399 20.561C11.5259 21.147 12.476 21.147 13.061 20.561L15.08 18.542C15.608 18.014 16.444 17.955 17.041 18.403L18.4 19.422C19.059 19.916 20 19.446 20 18.622V5.37898C20 4.55498 19.059 4.084 18.4 4.579ZM13 14.75H8C7.586 14.75 7.25 14.414 7.25 14C7.25 13.586 7.586 13.25 8 13.25H13C13.414 13.25 13.75 13.586 13.75 14C13.75 14.414 13.414 14.75 13 14.75ZM16 10.75H8C7.586 10.75 7.25 10.414 7.25 9.99999C7.25 9.58599 7.586 9.24999 8 9.24999H16C16.414 9.24999 16.75 9.58599 16.75 9.99999C16.75 10.414 16.414 10.75 16 10.75Z" fill="currentColor"/>
</svg>

<svg xmlns="http://www.w3.org/2000/svg" width="24" height="24" fill="none"><path fill="currentColor" d="m18.4 4.579-1.359 1.019a1.501 1.501 0 0 1-1.961-.139L13.061 3.44a1.5 1.5 0 0 0-2.121 0L8.92 5.459a1.5 1.5 0 0 1-1.961.139L5.601 4.579a1 1 0 0 0-1.6.8v13.243a1 1 0 0 0 1.6.8l1.359-1.019a1.501 1.501 0 0 1 1.961.139l2.019 2.019a1.5 1.5 0 0 0 2.121 0l2.019-2.019a1.5 1.5 0 0 1 1.961-.139l1.359 1.019a1 1 0 0 0 1.6-.8V5.379a1 1 0 0 0-1.6-.8ZM13 14.75H8a.75.75 0 0 1 0-1.5h5a.75.75 0 0 1 0 1.5Zm3-4H8a.75.75 0 0 1 0-1.5h8a.75.75 0 0 1 0 1.5Z"/></svg>
